src/components/ProductFeature/images/icons/heatmaps.svg

<svg height='100px' width='100px'  fill="#A970DC" xmlns="http://www.w3.org/2000/svg" xmlns:xlink="http://www.w3.org/1999/xlink" viewBox="0 0 100 100" version="1.1" x="0px" y="0px"><title>Heatmaps</title><desc>Created with Sketch.</desc><g stroke="none" stroke-width="1" fill="none" fill-rule="evenodd"><g fill="#A970DC"><circle cx="72" cy="40" r="13"></circle><circle cx="44.5" cy="62.5" r="17.5"></circle><circle cx="23.5" cy="38.5" r="9.5"></circle><circle cx="75.5" cy="72.5" r="6.5"></circle><g transform="translate(6.000000, 6.000000)"><circle cx="16.5" cy="5.5" r="1.5"></circle><circle cx="6.5" cy="5.5" r="1.5"></circle><circle cx="11.5" cy="5.5" r="1.5"></circle><polygon fill-rule="nonzero" points="0.5 11 87.6469318 11 87.6469318 9 0.5 9"></polygon><path d="M2,2 L2,84 L86,84 L86,2 L2,2 Z M2,0 L86,0 C87.1045695,-7.99360578e-15 88,0.8954305 88,2 L88,84 C88,85.1045695 87.1045695,86 86,86 L2,86 C0.8954305,86 0,85.1045695 0,84 L0,2 C0,0.8954305 0.8954305,0 2,0 Z" fill-rule="nonzero"></path></g></g></g></svg>

<svg fill="#A970DC" viewBox="0 0 100 100"><g fill-rule="evenodd"><circle cx="72" cy="40" r="13"/><circle cx="44.5" cy="62.5" r="17.5"/><circle cx="23.5" cy="38.5" r="9.5"/><circle cx="75.5" cy="72.5" r="6.5"/><g transform="translate(6 6)"><circle cx="16.5" cy="5.5" r="1.5"/><circle cx="6.5" cy="5.5" r="1.5"/><circle cx="11.5" cy="5.5" r="1.5"/><path fill-rule="nonzero" d="M.5 11h87.147V9H.5z"/><path fill-rule="nonzero" d="M2 2v82h84V2H2zm0-2h84a2 2 0 012 2v82a2 2 0 01-2 2H2a2 2 0 01-2-2V2a2 2 0 012-2z"/></g></g></svg>
